X: 43
T:I Lawr a'r Ffrancod
T:Down with the French
M:6/8
L:1/8
Q:130
S:Mary Richards' (1787-1877) Collection
R:Jig
A:Wales
Z:brian_martin12345@yahoo.com
K:G
d2Bd2B|GAGB3|c2Bc2B|ABG FED|d2Bd2B|GAGB3|AcB AGF|G3G3:||!
A2AB2G|FGED3|G2G BAG|d2BG2B|A2AB2G|FGED3|AcB AGF|G3G3:||

